src/assets/icons/picture.svg

<svg viewBox="0 0 56 56" fill="none" xmlns="http://www.w3.org/2000/svg">
<path d="M32.6667 21C32.6667 19.067 34.2337 17.5 36.1667 17.5C38.0996 17.5 39.6667 19.067 39.6667 21C39.6667 22.933 38.0996 24.5 36.1667 24.5C34.2337 24.5 32.6667 22.933 32.6667 21Z" fill="url(#paint0_linear_2420_211)"/>
<path fill-rule="evenodd" clip-rule="evenodd" d="M16.9576 10.8699C24.3054 10.2312 31.6946 10.2312 39.0425 10.8699L42.5663 11.1763C45.9382 11.4694 48.6698 14.0352 49.1731 17.3821C50.2315 24.4211 50.2315 31.5789 49.1731 38.6178C48.6698 41.9648 45.9382 44.5305 42.5663 44.8238L39.0425 45.1299C31.6946 45.7688 24.3054 45.7688 16.9576 45.1299L13.4337 44.8238C10.0619 44.5305 7.33031 41.9648 6.82701 38.6178C5.76852 31.5789 5.76852 24.4211 6.82701 17.3821C7.33031 14.0352 10.0619 11.4694 13.4337 11.1763L16.9576 10.8699ZM38.7394 14.3568C31.5933 13.7356 24.4067 13.7356 17.2607 14.3568L13.7368 14.6631C11.9767 14.8161 10.5508 16.1555 10.2881 17.9026C9.68719 21.8987 9.44501 25.935 9.56154 29.9635L18.5959 20.9292C18.9367 20.5884 19.403 20.4033 19.8847 20.4174C20.3665 20.4316 20.8211 20.6438 21.1413 21.004L29.708 30.6416L35.6132 28.6732C36.2738 28.4529 37.0018 28.6452 37.4675 29.1627L45.6787 38.2863C45.6913 38.224 45.7023 38.161 45.7119 38.0973C46.7185 31.4034 46.7185 24.5966 45.7119 17.9026C45.4491 16.1555 44.0232 14.8161 42.2632 14.6631L38.7394 14.3568ZM43.4471 41.0387L35.6326 32.3561L29.7201 34.3268C29.0558 34.5483 28.3239 34.3525 27.8586 33.8294L19.7584 24.7165L9.85647 34.6185C9.97029 35.7807 10.1142 36.9406 10.2881 38.0973C10.5508 39.8445 11.9767 41.1838 13.7368 41.3369L17.2607 41.6432C24.4067 42.2644 31.5933 42.2644 38.7394 41.6432L42.2632 41.3369C42.6802 41.3007 43.0785 41.1978 43.4471 41.0387Z" fill="url(#paint1_linear_2420_211)"/>
<defs>
<linearGradient id="paint0_linear_2420_211" x1="25.7881" y1="10.3909" x2="25.7881" y2="45.6091" gradientUnits="userSpaceOnUse">
<stop offset="0.0001" stop-color="#ED0189"/>
<stop offset="1" stop-color="#F3293B"/>
</linearGradient>
<linearGradient id="paint1_linear_2420_211" x1="25.7881" y1="10.3909" x2="25.7881" y2="45.6091" gradientUnits="userSpaceOnUse">
<stop offset="0.0001" stop-color="#ED0189"/>
<stop offset="1" stop-color="#F3293B"/>
</linearGradient>
</defs>
</svg>

<svg xmlns="http://www.w3.org/2000/svg" fill="none" viewBox="0 0 56 56">
  <path fill="currentColor" d="M32.667 21a3.5 3.5 0 1 1 7 0 3.5 3.5 0 0 1-7 0Z"/>
  <path fill="currentColor" d="M16.958 10.87a127.514 127.514 0 0 1 22.084 0l3.524.306a7.322 7.322 0 0 1 6.607 6.206 71.409 71.409 0 0 1 0 21.236 7.323 7.323 0 0 1-6.607 6.206l-3.524.306c-7.347.639-14.737.639-22.084 0l-3.524-.306a7.322 7.322 0 0 1-6.607-6.206 71.403 71.403 0 0 1 0-21.236 7.322 7.322 0 0 1 6.607-6.206l3.524-.306Zm21.781 3.487a124.008 124.008 0 0 0-21.478 0l-3.524.306a3.822 3.822 0 0 0-3.449 3.24 67.904 67.904 0 0 0-.726 12.06l9.034-9.034a1.75 1.75 0 0 1 2.545.075l8.567 9.638 5.905-1.969a1.75 1.75 0 0 1 1.855.49l8.21 9.123a3.84 3.84 0 0 0 .034-.189 67.903 67.903 0 0 0 0-20.194 3.822 3.822 0 0 0-3.449-3.24l-3.524-.306Zm4.708 26.682-7.814-8.683-5.913 1.97a1.75 1.75 0 0 1-1.861-.497l-8.1-9.113-9.903 9.902a67.94 67.94 0 0 0 .432 3.48 3.822 3.822 0 0 0 3.449 3.239l3.524.306c7.146.621 14.332.621 21.478 0l3.524-.306c.417-.036.816-.14 1.184-.298Z"/>
</svg>
